build/images/step2.svg

<svg width="145" height="37" viewBox="0 0 145 37" fill="none" xmlns="http://www.w3.org/2000/svg">
<path d="M18.68 29L10.8 15.68L17.16 11.92L27.6 29H18.68ZM0.84 29V0.999998H8.72V29H0.84ZM6.44 18.28V11.88H16.6V18.28H6.44ZM17.92 15.84L10.6 15.04L19.2 0.999998H27.52L17.92 15.84ZM43.8094 29.36C41.9694 29.36 40.396 28.96 39.0894 28.16C37.7827 27.3333 36.7827 26.1067 36.0894 24.48C35.4227 22.8267 35.0894 20.72 35.0894 18.16C35.0894 15.5733 35.4094 13.4667 36.0494 11.84C36.6894 10.1867 37.6494 8.96 38.9294 8.16C40.236 7.36 41.8627 6.96 43.8094 6.96C45.7827 6.96 47.5694 7.42667 49.1694 8.36C50.796 9.26667 52.076 10.56 53.0094 12.24C53.9694 13.8933 54.4494 15.8667 54.4494 18.16C54.4494 20.4533 53.9694 22.44 53.0094 24.12C52.076 25.8 50.796 27.0933 49.1694 28C47.5694 28.9067 45.7827 29.36 43.8094 29.36ZM30.1694 36.76V7.32H37.4094V11L37.3694 18.16L37.7694 25.36V36.76H30.1694ZM42.2094 23.32C43.0627 23.32 43.8227 23.12 44.4894 22.72C45.1827 22.32 45.7294 21.7333 46.1294 20.96C46.556 20.1867 46.7694 19.2533 46.7694 18.16C46.7694 17.0667 46.556 16.1333 46.1294 15.36C45.7294 14.5867 45.1827 14 44.4894 13.6C43.8227 13.2 43.0627 13 42.2094 13C41.356 13 40.5827 13.2 39.8894 13.6C39.2227 14 38.676 14.5867 38.2494 15.36C37.8494 16.1333 37.6494 17.0667 37.6494 18.16C37.6494 19.2533 37.8494 20.1867 38.2494 20.96C38.676 21.7333 39.2227 22.32 39.8894 22.72C40.5827 23.12 41.356 23.32 42.2094 23.32ZM68.7791 29.36C66.4057 29.36 64.2991 28.88 62.4591 27.92C60.6191 26.96 59.1657 25.64 58.0991 23.96C57.0591 22.2533 56.5391 20.3067 56.5391 18.12C56.5391 15.9333 57.0591 14 58.0991 12.32C59.1657 10.64 60.6191 9.33333 62.4591 8.4C64.2991 7.44 66.4057 6.96 68.7791 6.96C71.1524 6.96 73.2591 7.44 75.0991 8.4C76.9657 9.33333 78.4191 10.64 79.4591 12.32C80.4991 14 81.0191 15.9333 81.0191 18.12C81.0191 20.3067 80.4991 22.2533 79.4591 23.96C78.4191 25.64 76.9657 26.96 75.0991 27.92C73.2591 28.88 71.1524 29.36 68.7791 29.36ZM68.7791 23.32C69.6591 23.32 70.4324 23.12 71.0991 22.72C71.7924 22.32 72.3391 21.7333 72.7391 20.96C73.1391 20.16 73.3391 19.2133 73.3391 18.12C73.3391 17.0267 73.1391 16.1067 72.7391 15.36C72.3391 14.5867 71.7924 14 71.0991 13.6C70.4324 13.2 69.6591 13 68.7791 13C67.9257 13 67.1524 13.2 66.4591 13.6C65.7924 14 65.2457 14.5867 64.8191 15.36C64.4191 16.1067 64.2191 17.0267 64.2191 18.12C64.2191 19.2133 64.4191 20.16 64.8191 20.96C65.2457 21.7333 65.7924 22.32 66.4591 22.72C67.1524 23.12 67.9257 23.32 68.7791 23.32ZM99.7834 29L93.1834 18.88L99.3034 15.28L108.743 29H99.7834ZM84.5834 29V7.32H92.1834V29H84.5834ZM89.9434 21.28V15.32H97.7834V21.28H89.9434ZM100.063 19L92.9434 18.28L100.223 7.32H108.263L100.063 19ZM119.384 29L120.384 24.04L132.624 14.52C133.584 13.7467 134.33 13.08 134.864 12.52C135.397 11.96 135.77 11.4267 135.984 10.92C136.224 10.4133 136.344 9.90667 136.344 9.4C136.344 8.62667 136.05 8 135.464 7.52C134.877 7.04 134.037 6.8 132.944 6.8C131.984 6.8 131.05 7.05333 130.144 7.56C129.264 8.04 128.464 8.72 127.744 9.6L122.464 6.12C123.584 4.38667 125.17 3.01333 127.224 2C129.277 0.959999 131.584 0.439998 134.144 0.439998C136.17 0.439998 137.957 0.773332 139.504 1.44C141.077 2.10667 142.29 3.02667 143.144 4.2C144.024 5.34667 144.464 6.68 144.464 8.2C144.464 9.32 144.264 10.4 143.864 11.44C143.464 12.48 142.784 13.5467 141.824 14.64C140.89 15.7067 139.584 16.88 137.904 18.16L128.344 25.56L127.264 22.72H142.464L141.184 29H119.384Z" fill="#FFEA31"/>
</svg>

<svg width="145" height="37" fill="none" xmlns="http://www.w3.org/2000/svg"><path d="M18.68 29 10.8 15.68l6.36-3.76L27.6 29h-8.92ZM.84 29V1h7.88v28H.84Zm5.6-10.72v-6.4H16.6v6.4H6.44Zm11.48-2.44-7.32-.8L19.2 1h8.32l-9.6 14.84Zm25.89 13.52c-1.84 0-3.414-.4-4.72-1.2-1.307-.827-2.307-2.053-3-3.68-.667-1.653-1-3.76-1-6.32 0-2.587.32-4.693.96-6.32.64-1.653 1.6-2.88 2.88-3.68 1.306-.8 2.933-1.2 4.88-1.2 1.973 0 3.76.467 5.36 1.4 1.626.907 2.906 2.2 3.84 3.88.96 1.653 1.44 3.627 1.44 5.92s-.48 4.28-1.44 5.96c-.934 1.68-2.214 2.973-3.84 3.88-1.6.907-3.387 1.36-5.36 1.36Zm-13.64 7.4V7.32h7.24V11l-.04 7.16.4 7.2v11.4h-7.6Zm12.04-13.44c.853 0 1.613-.2 2.28-.6.693-.4 1.24-.987 1.64-1.76.426-.773.64-1.707.64-2.8 0-1.093-.214-2.027-.64-2.8-.4-.773-.947-1.36-1.64-1.76-.667-.4-1.427-.6-2.28-.6-.854 0-1.627.2-2.32.6-.667.4-1.214.987-1.64 1.76-.4.773-.6 1.707-.6 2.8 0 1.093.2 2.027.6 2.8.426.773.973 1.36 1.64 1.76.693.4 1.466.6 2.32.6Zm26.57 6.04c-2.374 0-4.48-.48-6.32-1.44-1.84-.96-3.294-2.28-4.36-3.96-1.04-1.707-1.56-3.653-1.56-5.84s.52-4.12 1.56-5.8c1.066-1.68 2.52-2.987 4.36-3.92 1.84-.96 3.946-1.44 6.32-1.44 2.372 0 4.48.48 6.32 1.44 1.866.933 3.32 2.24 4.36 3.92 1.04 1.68 1.56 3.613 1.56 5.8s-.52 4.133-1.56 5.84c-1.04 1.68-2.494 3-4.36 3.96-1.84.96-3.948 1.44-6.32 1.44Zm0-6.04c.88 0 1.652-.2 2.32-.6.692-.4 1.24-.987 1.64-1.76.4-.8.6-1.747.6-2.84 0-1.093-.2-2.013-.6-2.76-.4-.773-.948-1.36-1.64-1.76-.668-.4-1.44-.6-2.32-.6-.854 0-1.628.2-2.32.6-.668.4-1.214.987-1.64 1.76-.4.747-.6 1.667-.6 2.76 0 1.093.2 2.04.6 2.84.426.773.972 1.36 1.64 1.76.692.4 1.466.6 2.32.6ZM99.782 29l-6.6-10.12 6.12-3.6 9.44 13.72h-8.96Zm-15.2 0V7.32h7.6V29h-7.6Zm5.36-7.72v-5.96h7.84v5.96h-7.84Zm10.12-2.28-7.12-.72 7.28-10.96h8.04l-8.2 11.68Zm19.321 10 1-4.96 12.24-9.52c.96-.773 1.706-1.44 2.24-2 .533-.56.906-1.093 1.12-1.6.24-.507.36-1.013.36-1.52 0-.773-.294-1.4-.88-1.88-.587-.48-1.427-.72-2.52-.72-.96 0-1.894.253-2.8.76-.88.48-1.68 1.16-2.4 2.04l-5.28-3.48c1.12-1.733 2.706-3.107 4.76-4.12 2.053-1.04 4.36-1.56 6.92-1.56 2.026 0 3.813.333 5.36 1 1.573.667 2.786 1.587 3.64 2.76.88 1.147 1.32 2.48 1.32 4 0 1.12-.2 2.2-.6 3.24-.4 1.04-1.08 2.107-2.04 3.2-.934 1.067-2.24 2.24-3.92 3.52l-9.56 7.4-1.08-2.84h15.2l-1.28 6.28h-21.8Z" fill="#FFEA31"/></svg>
